app/assets/images/payment_icons/urbo.svg

<svg xmlns="http://www.w3.org/2000/svg" role="img" width="38" viewBox="0 0 38 24" height="24" aria-labelledby="pi-urbo"><title id="pi-urbo">Urbo</title><path d="M35 0H3C1.3 0 0 1.3 0 3v18c0 1.7 1.4 3 3 3h32c1.7 0 3-1.3 3-3V3c0-1.7-1.4-3-3-3Z" style="fill-opacity:.07;fill-rule:nonzero"/><path d="M35 1c1.1 0 2 .9 2 2v18c0 1.1-.9 2-2 2H3c-1.1 0-2-.9-2-2V3c0-1.1.9-2 2-2h32Z" style="fill:#fff;fill-rule:nonzero"/><path d="M352.328 0c-30.015 0-54.432 24.487-54.432 54.574S322.319 109 352.328 109c30.01 0 54.557-24.422 54.557-54.426S382.409 0 352.328 0ZM86.073 1.786V67.66c0 11.512-9.358 20.87-20.853 20.87-11.495 0-20.853-9.358-20.853-20.87V27.428L23.898 39.242v28.424c0 22.8 18.539 41.333 41.322 41.333 22.782 0 41.321-18.154 41.321-41.333V1.786H86.073Zm194.039 50.708c4.191-5.404 6.552-12.187 6.552-19.231 0-17.361-14.235-31.478-31.738-31.478H212.67v105.419h46.116c17.425 0 31.602-14.117 31.602-31.478 0-9.068-3.801-17.425-10.276-23.232Zm-101.494 8.973c10.216-5.404 17.059-16.159 17.059-27.944 0-17.491-14.301-31.738-31.874-31.738h-42.387v105.419h20.468V64.545h15.431l23.819 42.659h23.842l-26.358-45.737Zm173.71 27.077c-18.734 0-33.969-15.248-33.969-33.97s15.235-33.97 33.969-33.97 33.97 14.922 33.97 33.97-15.236 33.97-33.97 33.97Zm-82.545-12.868c-.002 6.108-4.955 11.06-11.063 11.06h-25.452v-22.12h25.452c6.108 0 11.061 4.953 11.063 11.06Zm0 .003v-.006.006Zm-36.509-53.284h22.132c6.108 0 11.063 4.955 11.063 11.063 0 6.109-4.955 11.063-11.063 11.063h-22.132V22.395Zm-58.201 11.066c-.002 6.108-4.956 11.06-11.063 11.06h-22.132v-22.12h22.132c6.107 0 11.061 4.953 11.063 11.06Zm0 .003v-.006.006ZM0 1.785l23.712 13.691v.018L44.37 27.421V1.785H0Z" style="fill:#23715f;fill-rule:nonzero" transform="matrix(.06547 0 0 .06547 5.68 8.432)"/></svg>

<svg xmlns="http://www.w3.org/2000/svg" role="img" viewBox="0 0 38 24" width="38" height="24" aria-labelledby="pi-urbo"><title id="pi-urbo">Urbo</title><g><path d="M35,0L3,0C1.3,0 0,1.3 0,3L0,21C0,22.7 1.4,24 3,24L35,24C36.7,24 38,22.7 38,21L38,3C38,1.3 36.6,0 35,0Z" style="fill-opacity:0.07;fill-rule:nonzero;"/><path d="M35,1C36.1,1 37,1.9 37,3L37,21C37,22.1 36.1,23 35,23L3,23C1.9,23 1,22.1 1,21L1,3C1,1.9 1.9,1 3,1L35,1Z" style="fill:white;fill-rule:nonzero;"/><g transform="matrix(0.0654689,0,0,0.0654689,5.68083,8.43194)"><path d="M352.328,0C322.313,0 297.896,24.487 297.896,54.574C297.896,84.661 322.319,109 352.328,109C382.338,109 406.885,84.578 406.885,54.574C406.885,24.57 382.409,0 352.328,0ZM86.073,1.786L86.073,67.66C86.073,79.172 76.715,88.53 65.22,88.53C53.725,88.53 44.367,79.172 44.367,67.66L44.367,27.428L23.898,39.242L23.898,67.666C23.898,90.466 42.437,108.999 65.22,108.999C88.002,108.999 106.541,90.845 106.541,67.666L106.541,1.786L86.073,1.786ZM280.112,52.494C284.303,47.09 286.664,40.307 286.664,33.263C286.664,15.902 272.429,1.785 254.926,1.785L212.67,1.785L212.67,107.204L258.786,107.204C276.211,107.204 290.388,93.087 290.388,75.726C290.388,66.658 286.587,58.301 280.112,52.494ZM178.618,61.467C188.834,56.063 195.677,45.308 195.677,33.523C195.677,16.032 181.376,1.785 163.803,1.785L121.416,1.785L121.416,107.204L141.884,107.204L141.884,64.545L157.315,64.545L181.134,107.204L204.976,107.204L178.618,61.467ZM352.328,88.544C333.594,88.544 318.359,73.296 318.359,54.574C318.359,35.852 333.594,20.604 352.328,20.604C371.062,20.604 386.298,35.526 386.298,54.574C386.298,73.622 371.062,88.544 352.328,88.544ZM269.783,75.676C269.781,81.784 264.828,86.736 258.72,86.736L233.268,86.736L233.268,64.616L258.72,64.616C264.828,64.616 269.781,69.569 269.783,75.676ZM269.783,75.679L269.783,75.673L269.783,75.679ZM233.274,22.395L255.406,22.395C261.514,22.395 266.469,27.35 266.469,33.458C266.469,39.567 261.514,44.521 255.406,44.521L233.274,44.521L233.274,22.395ZM175.073,33.461C175.071,39.569 170.117,44.521 164.01,44.521L141.878,44.521L141.878,22.401L164.01,22.401C170.117,22.401 175.071,27.354 175.073,33.461ZM175.073,33.464L175.073,33.458L175.073,33.464ZM0,1.785L23.712,15.476L23.712,15.494L44.37,27.421L44.37,1.785L0,1.785Z" style="fill:rgb(35,113,95);fill-rule:nonzero;"/></g></g></svg>
